X:83
T:Bonnie Laddie, Highland Laddie
C:arr. Carlo Minasi
M:2/4
L:1/8
B:Chappell's One Hundred Scotch Melodies
B:Arranged for the Concertina by Carlo Minasi
Q:"Allegretto  "1/4=120
Z:Peter Dunk 2012
K:G
!mf!(G>A) BB|(cA) B2|L([BD][AC]) ([AC][G/B,/][A/C/])|\
L([BD][AC]) ([AC]B)|(G>A) BB|
(d/c/B/A/) B>A|L(GE) (ED)|L(GE) (ED)||\
(eg)(de)|(cB/A/) B2|
L([BD][AC]) ([AC][G/B,/][A/C/])|L([BD][AC]) ([AC]B)|\
(eg) (de)|(cB/A/) (B>A)|L(GE) (ED)|L(GE) (ED)||

